X:3654
T:Curlew, The
M:C|
L:1/8
C:Josephine Keegan
R:reel
D:John Whelan and Eileen Ivers: Fresh Takes
Z:Devin McCabe
K:BDor
f~B3 F~B3|fece agae|(3fga ed cA A/2A/2A|EAce agba|
!f~B3 F~B3|fece ~a3f|~=g3e ~f3e|dBcA F~B3:|
!|:(3Bcd cd B~F3|D~F3 Bcdf|ecBc AEED|CEAB cAec|
!d2 cd B~F3|D~F3 BcdB|cBAc ~e3c|dcBA F~B3:|


